X: 577
T: Fiery Clockface
B: good tune book
B: tunes
M:6/8
R: jig
Q: 3/8=100
K:Dmajor
V:1 
|:c|d2 d D2 E|F2 G A2 B|=c2 =c E2 F|G2 A B2 c|
 d2 d D2 E|F2 G A3|Bcd ecA|d3 d2:|
 |:g|f2 d def|g2 f e2 d|c2 B A2 B|c2 d e2 g|
 f2 d def|g2 f e2 d|c2 A B2 c|d3 d2:|
% abcbook-tune_id 63dce372c038451b595aea0f
% abcbook-tune_composer_id 
% abcbook-link-0 https://www.youtube.com/watch?v=wkY6ktW5c5c
% abcbook-link-title-0 Fiery Clockface
% abcbook-boost 5
% abcbook-difficulty 0
% abcbook-tags good tune book
% abcbook-tablature 
% abcbook-transpose 
% abcbook-tuning 
% abcbook-lastupdated 1675472899469
% abcbook-soundfonts 
% abcbook-repeats 1


